icons/shield-16.svg

<svg width="16" height="16" viewBox="0 0 16 16" fill="none" xmlns="http://www.w3.org/2000/svg">
<path fill-rule="evenodd" clip-rule="evenodd" d="M7.46664 0.133062C7.81355 0.0220518 8.18645 0.0220524 8.53336 0.133063L13.7834 1.81306C14.5082 2.045 15 2.71878 15 3.4798V6.99985C15 8.5659 14.6808 10.1823 13.6968 11.682C12.7137 13.1805 11.1116 14.4946 8.66493 15.5367C8.24091 15.7173 7.75909 15.7173 7.33508 15.5367C4.88836 14.4946 3.28631 13.1805 2.3032 11.682C1.31923 10.1823 1 8.5659 1 6.99985V3.4798C1 2.71878 1.49183 2.045 2.21664 1.81306L7.46664 0.133062ZM8.07619 1.5617C8.02664 1.54584 7.97336 1.54584 7.92381 1.5617L2.67381 3.2417C2.57026 3.27483 2.5 3.37109 2.5 3.4798V6.99985C2.5 8.35818 2.77465 9.66618 3.55737 10.8592C4.34094 12.0535 5.67838 13.2007 7.92287 14.1567C7.97134 14.1773 8.02866 14.1773 8.07713 14.1567C10.3216 13.2007 11.6591 12.0535 12.4426 10.8592C13.2253 9.66618 13.5 8.35818 13.5 6.99985V3.4798C13.5 3.37109 13.4297 3.27483 13.3262 3.2417L8.07619 1.5617ZM9 10.4999C9 11.0522 8.55228 11.4999 8 11.4999C7.44772 11.4999 7 11.0522 7 10.4999C7 9.94759 7.44772 9.49988 8 9.49988C8.55228 9.49988 9 9.94759 9 10.4999ZM8.75 4.74988C8.75 4.33566 8.41421 3.99988 8 3.99988C7.58579 3.99988 7.25 4.33566 7.25 4.74988V7.74988C7.25 8.16409 7.58579 8.49988 8 8.49988C8.41421 8.49988 8.75 8.16409 8.75 7.74988V4.74988Z" fill="#24292E"/>
</svg>

<svg xmlns="http://www.w3.org/2000/svg" width="16" height="16" viewBox="0 0 16 16"><path fill-rule="evenodd" d="M7.467.133a1.75 1.75 0 011.066 0l5.25 1.68A1.75 1.75 0 0115 3.48V7c0 1.566-.32 3.182-1.303 4.682-.983 1.498-2.585 2.813-5.032 3.855a1.7 1.7 0 01-1.33 0c-2.447-1.042-4.049-2.357-5.032-3.855C1.32 10.182 1 8.566 1 7V3.48a1.75 1.75 0 011.217-1.667l5.25-1.68zm.61 1.429a.25.25 0 00-.153 0l-5.25 1.68a.25.25 0 00-.174.238V7c0 1.358.275 2.666 1.057 3.86.784 1.194 2.121 2.34 4.366 3.297a.2.2 0 00.154 0c2.245-.956 3.582-2.104 4.366-3.298C13.225 9.666 13.5 8.36 13.5 7V3.48a.25.25 0 00-.174-.237l-5.25-1.68zM9 10.5a1 1 0 11-2 0 1 1 0 012 0zm-.25-5.75a.75.75 0 10-1.5 0v3a.75.75 0 001.5 0v-3z"/></svg>
